X:1
T:James Gibb editions
T:Fortem virili pectore - Thermignon
T:#
%%score { 1 | 2 } 3
L:1/8
Q:1/4=208
M:2/2
K:C
V:1 treble nm="Soprano I" snm="S"
V:2 treble 
V:3 treble nm="Alto" snm="A"
V:1
"^Fortem virili pectore""^Delfino Thermignon\n (1861-1944)""^mosso" c4 (B2 d2) | c4 e2- e2 | %2
w: For- tem vi-|ri- li *|
w: Car- nem do-|mans je\- *|
w: De- o *|Pa- tri sit|
 e6 d2 | d4 z2 d2 | f4 e4 | ((e2 d2) (c2) B2) |[M:2/2] A4 A4 | B4 z2 B2 | c4 B4 | e4 d4 | c6 B2 | %11
w: pe- cto-|re lau-|de- mus|o\- * mnes *|fe- mi-|nam, quae|san- cti-|ta- tis|glo- ri-|
w: ju- ni-|is, dul-|ci- que|men\- * tem *|pa- bu-|lo o-|ra- ti-|o- nis|nu- tri-|
w: glo- ri-|a, e-|jus- que|so\- * * li|Fi- li-|o, cum|Spi- ri-|tu pa-|ra- cli-|
 A4 z2 A2 | (d2 e2) (f2 d2) | (e3 d) c2 _B2 | (A2 =B2) (c2 d2) | (e4 (f2 e2)) | d4 d4 | %17
w: a u-|bi\- * que *|ful\- * get, u-|bi\- * que *|ful- get *|in- cly-|
w: ens, *|coe\- * li po-|ti\- * tur, po-|ti\- * tur *|gau\- * *|* di-|
w: to, nunc|et * per *|o\- * mne, per|o\- * mne *|sae\- * *|* cu-|
 !fermata!c8 || (c4 f2 e2 | d8) | !fermata!e8 |] %21
w: ta.||||
w: is.||||
w: lum.|A\- * *||men.|
V:2
 E4 (F2 F2) | G4 G2- G2 | A6 A2 | A4 z2 A2 | B4 c4 | ((c2 B2) (A2) G2) |[M:2/2] G4 ^F4 | G4 z2 G2 | %8
w: For- tem vi-|ri- li *|pe- cto-|re lau-|de- mus|o\- * mnes *|fe- mi-|nam, quae|
w: Car- nem do-|mans je\- *|ju- ni-|is, dul-|ci- que|men\- * tem *|pa- bu-|lo o-|
w: De- o *|Pa- tri sit|glo- ri-|a, e-|jus- que|so\- * * li|Fi- li-|o, cum|
 G4 G4 | G4 ^G4 | A6 ^G2 | A4 z2 A2 | A4 B2- B2 | (c3 B) c2 E2 | (F2 G2) (A2 B2) | (c4 c4 | %16
w: san- cti-|ta- tis|glo- ri-|a u-|bi- que *|ful\- * get, u-|bi\- * que *|ful- get|
w: ra- ti-|o- nis|nu- tri-|ens, *|coe- li po-|ti\- * tur, po-|ti\- * tur *|gau\- *|
w: Spi- ri-|tu pa-|ra- cli-|to, nunc|et per *|o\- * mne, per|o\- * mne *|sae\- *|
 A4) B4 | !fermata!c8 || (c8- | c2 A2 B4) | !fermata!c8 |] %21
w: in- cly-|ta.||||
w: * di-|is.||||
w: * cu-|lum.|A\-||men.|
V:3
 C4 (D2 D2) | E4 E2- E2 | F6 F2 | F4 z2 F2 | D4 C4 | ((A,2 B,2) (C2) ^C2) |[M:2/2] D4 D4 | %7
w: For- tem vi-|ri- li *|pe- cto-|re lau-|de- mus|o\- * mnes *|fe- mi-|
w: Car- nem do-|mans je\- *|ju- ni-|is, dul-|ci- que|men\- * tem *|pa- bu-|
w: De- o *|Pa- tri sit|glo- ri-|a, e-|jus- que|so\- * * li|Fi- li-|
 G4 z2 G2 | E4 D4 | C4 B,4 | E6 D2 | C4 z2 C2 | (F2 E2) (D2 G2) | (C3 D) E2 z2 | z8 | %15
w: nam, quae|san- cti-|ta- tis|glo- ri-|a u-|bi\- * que *|ful\- * get,||
w: lo o-|ra- ti-|o- nis|nu- tri-|ens, *|coe\- * li po-|ti\- * tur,||
w: o, cum|Spi- ri-|tu pa-|ra- cli-|to, nunc|et * per *|o\- * mne,||
 (((c2 _B2) (A2 G2))) | F4 G4 | !fermata!C8 || (c4 A2 G2 | F4 G4) | !fermata!C8 |] %21
w: ful\- * get *|in- cly-|ta.||||
w: gau- * * *|* di-|is.||||
w: sae- * * *|* cu-|lum.|A\- * *||men.|

